src/components/ProtocolIcon/cronos.svg

<svg width="14" height="16" viewBox="0 0 14 16" fill="none" xmlns="http://www.w3.org/2000/svg">
<path fill-rule="evenodd" clip-rule="evenodd" d="M6.92457 0L0 3.99866V11.9987L6.92457 16V13.6265L2.05162 10.8133V5.18136L6.92457 2.37077V0ZM6.92996 16L13.8545 12.0013V4.00134L6.92996 0V2.37345L11.8029 5.18672V10.8186L6.92996 13.6292V16ZM6.92725 11.7358L10.1616 9.86926L8.81528 9.08884L6.92725 10.1804L5.03922 9.08884V6.91117L6.92725 5.81965L8.81528 6.91117L10.1616 6.13343L6.92725 4.26417L3.69025 6.13343V9.86926L6.92725 11.7358Z" fill="#fff"/>
</svg>

<svg xmlns="http://www.w3.org/2000/svg" width="14" height="16" fill="none"><path fill="#fff" fill-rule="evenodd" d="M6.925 0 0 3.999v8L6.925 16v-2.373l-4.873-2.814V5.181l4.873-2.81zm.005 16 6.925-3.999v-8L6.93 0v2.373l4.873 2.814v5.632l-4.873 2.81zm-.003-4.264 3.235-1.867-1.347-.78-1.888 1.091L5.04 9.09V6.91L6.927 5.82 8.815 6.91l1.347-.778-3.235-1.869-3.237 1.87v3.735z" clip-rule="evenodd"/></svg>
